X:1
T:Violin Concerto, Op. 34
T:Violin Concerto No. 1, Op. 34
T:I. Allegro moderato
T:Oskar Rieding (1840-1918)
T:Source: Leipzig: Bosworth & Co, 1909.
C:Oscar Rieding
%%score ( 1 2 )
L:1/8
Q:1/4=120
M:4/4
K:G
V:1 treble nm="Violin" snm="Vln."
V:2 treble 
V:1
"^Allegro moderato""_Piano" z8 | z8 | z8 | z8 | z8 | z8 | z8 | z8 |!p!"^Solo." B4 (ABcA) | %9
 (B2 cd) e4 |!mf! c4 (BcdB) | (ceag) ^f4 |!f! b4 (a2 f2) | (a3 g) (fgbg) | (feag)!>(! (fedc)!>)! | %15
!p! (B2 dB) A2 z2 |!f! !>!B2 !>!b2 !>!a2 !>!A2 | G2 (AG) =F2 (GF) | !>!E2 !>!e2 !>!d2 !>!D2 | %19
 C2 (DC) B,2 (CB,) | (A,B,)CD (E^F=GA) | (B2 c2) (^c2 d2) | (e2 d2)!>(! (!fermata!b3 a)!>)! | %23
!p! g4- g(f/g/ a/g/f/e/) | (d3 ^c) (edBG) | F4- F!<(!(D/E/ F/G/A/B/)!<)! | %26
!mf! (=c3 e/d/) (c/B/A/G/ F/E/D/C/) | (B,3 A, G,)(A,/B,/ C/D/E/F/) | (G3 F) (GBed) | %29
 (d2 ^c)!<(!(b/a/ g/f/e/d/ c/B/A/G/)!<)! |!f! (FAd^c) (B/c/d/c/) (e/d/c/B/) | %31
 A2 a2 z2!mf! (3AB^c ||[K:D] d2 (3dcd e2 (3cde | f2 d2 A2 (3Adf | a2 g2 f2 e2 | d2 (3fed c2 (3cde | %36
 f2 e2 d2!<(! (3def!<)! |!f! g2 ^g2 a2 (3ba=g | f2 (3agf e2 (3gfe | d2 (3dAF D2!mf! A2 | %40
 (d2 c2) (B2 F2) | (A4 E2) E2 | (e2 d2) (c2 B2) | (d4 c2) A2 |!f! f4 ^g4 | (b3 a) (^gfaf) | %46
 (fecA) (^GEDB,) | A,4 z2!mf! (3ABc | d2 (3dcd e2 (3cde | f2 d2 A2 (3Adf | a2 g2 f2 e2 | %51
 d2 (3fed c2 (3cde | f2 e2 d2!<(! (3def!<)! |!f! g2 ^g2 a2 (3ba=g | f2 (3agf e2 (3gfe | %55
!f! d2 (d/e/d/c/) B2 (e/d/c/B/) | A/A/B/B/ c/c/d/d/ e/e/f/f/ g/g/e/e/ | %57
 d2 (d/e/d/c/) B2 (e/d/c/B/) | A/A/a/a/ f/f/d/d/ c/c/A/A/ G/G/E/E/ | %59
!f! D/D/A,/A,/ B,/B,/C/C/ D/D/A,/A,/ B,/B,/C/C/ | D2 z2 z4 | z8 | z8 ||!mf! d4 (cdec) | %64
 (d2 ef) (g2 b2) | (B3 ^c) (!>!d2 cB) | (F3 =G) F4 | G4 (FGAF) |!<(! (G2 B2) e3 (e!<)! | %69
!f! !>!a2) AB (!>!=c2 BA) | (E3 =F)!>(! E4!>)! |!mf! =c4 (BcdB) | (=cBAE) =F4 | (DE=FD) (d3 F) | %74
 (E=FGE) (e3 d) | (d=cBc) (edcB) |!<(! (AB=cd) (e^f=ga)!<)! |!f! (b3 f) (agfg) | (a3 e) (gfef) | %79
 (agfg)!>(! (fed=c)!>)! | (B2 d2) (_B2 d2) | (A2 d2) !fermata!z2!mf! (3DEF || %82
[K:G] G2 (3GFG A2 (3FGA | B2 G2 D2 (3DGB | d2 c2 B2 A2 | G2 (3BAG F2 (3FGA | %86
 B2 A2 G2!<(! (3GAB!<)! |!f! c2 ^c2 d2 (3ed=c | B2 (3dcB A2 (3cBA | %89
!f! !>!G2 (F/G/A/G/) G,/G,/A,/A,/ _B,/B,/G,/G,/ | !>!G2 (F/G/A/G/) D/D/F/F/ G/G/A/A/ | %91
 (_B>e) (g>^f) (a>g) (_b>g) | =b/b/g/g/ d/d/B/B/ d/d/c/c/ A/A/F/F/ | %93
!f! !>!G2 (F/G/A/G/) G,/G,/A,/A,/ _B,/B,/G,/G,/ | !>!G2 (F/G/A/G/) D/D/F/F/ G/G/A/A/ | %95
 (_B>!open!=e) (g>^f) (a>g) (_b>g) | =b/b/g/g/ d/d/B/B/ d/d/c/c/ A/A/F/F/ | %97
!f! G2 (3G,B,D G2 (3B,DG | B2 (3DGB d2 (3GBd | g2 z2 v[DBb]2 z2 | !fermata!G,8 |] %101
V:2
 [B,B]4 [A,A][B,B][Cc][A,A] | [B,B]2 [Cc][Dd] [EGe]2 [E^Gd]2 | [EAc]2 [Ace]2 [Aea]2 [_Be=g]2 | %3
 [Adg]2 [Adf][^Gd^e] [Adf]4 | [Gdg]4 [G,D=F]4 | [G,CE]2 [Gce]2 [GA_e]2 [G,A,_E]2 | %6
 [G,=B,D]3 [B,DG] [DGB]2 [^CG_B]2 | [^CFA]3 [B,^E^G] [CFA]2 z2 | x8 | x8 | x8 | x8 | x8 | x8 | x8 | %15
 x8 | x8 | x8 | x8 | x8 | x8 | x8 | x8 | x8 | x8 | x8 | x8 | x8 | x8 | x8 | x8 | x8 ||[K:D] x8 | %33
 x8 | x8 | x8 | x8 | x8 | x8 | x8 | x8 | x8 | x8 | x8 | x8 | x8 | x8 | x8 | x8 | x8 | x8 | x8 | %52
 x8 | x8 | x8 | x8 | x8 | x8 | x8 | x8 | x8 | x8 | x8 || x8 | x8 | x8 | x8 | x8 | x8 | x8 | x8 | %71
 x8 | x8 | x8 | x8 | x8 | x8 | x8 | x8 | x8 | x8 | x8 ||[K:G] x8 | x8 | x8 | x8 | x8 | x8 | x8 | %89
 x8 | x8 | x8 | x8 | x8 | x8 | x8 | x8 | x8 | x8 | x8 | x8 |] %101

